icons/op-file-form-24.svg

<svg width="24" height="24" viewBox="0 0 24 24" fill="none" xmlns="http://www.w3.org/2000/svg">
<path fill-rule="evenodd" clip-rule="evenodd" d="M8 14.5H16V17.5H8V14.5ZM15 16.5V15.5H9V16.5H15Z" fill="black"/>
<path fill-rule="evenodd" clip-rule="evenodd" d="M8 11H16V14H8V11ZM9 12H15V13H9V12Z" fill="black"/>
<path fill-rule="evenodd" clip-rule="evenodd" d="M14.3969 4L18 7.6875V20H6V4H14.3969ZM7.40458 5.4375V18.5625H16.5954V8.3125L13.8168 5.4375H7.40458Z" fill="black"/>
</svg>

<svg xmlns="http://www.w3.org/2000/svg" width="24" height="24" viewBox="0 0 24 24"><path d="M8 14.5h8v3H8Zm7 2v-1H9v1ZM8 11h8v3H8Zm1 1v1h6v-1Z"/><path d="M14.397 4 18 7.688V20H6V4ZM7.405 5.438v13.124h9.19V8.312l-2.778-2.874Z"/></svg>
